packages/ui-icons/svg/Line/remove-link.svg

<svg viewBox="0 0 1920 1920" version="1.1" xmlns="http://www.w3.org/2000/svg">
    <path d="M1406.94167,1536.21945 L1406.94167,1920 L1279.01482,1920 L1279.01482,1536.21945 L1406.94167,1536.21945 Z M461.216844,901.702271 C496.268801,866.522388 539.252223,841.832505 591.958085,847.589214 C640.698215,847.845067 686.240174,867.289949 720.396643,902.213979 L720.396643,902.213979 L628.801018,991.634847 C618.822724,981.144845 609.100283,975.516064 590.93467,975.516064 C576.351009,975.516064 562.406983,981.400699 551.789054,992.146555 L551.789054,992.146555 L144.597889,1399.20979 C123.617886,1420.31772 123.617886,1454.60212 144.725816,1475.71005 L144.725816,1475.71005 L444.074646,1775.05888 C464.415015,1795.27132 500.234533,1795.27132 520.574903,1775.05888 L520.574903,1775.05888 L927.63814,1368.12357 C938.383996,1357.37771 944.268631,1343.17783 944.140704,1328.46624 C944.140704,1314.26636 938.383996,1300.96197 928.149848,1290.85575 L928.149848,1290.85575 L1017.44279,1199.38805 C1052.36682,1233.41659 1071.8117,1278.95855 1072.0701,1327.69868 C1072.32341,1376.95052 1053.26231,1423.38797 1018.08242,1458.56785 L1018.08242,1458.56785 L611.019186,1865.50316 C576.73479,1899.91548 531.064904,1918.72073 482.324774,1918.72073 C433.584644,1918.72073 387.786832,1899.91548 353.502436,1865.50316 L353.502436,1865.50316 L54.1536063,1566.15433 C-16.7178688,1495.28286 -16.7178688,1379.63698 54.1536063,1308.76551 L54.1536063,1308.76551 Z M1644.04129,1554.96073 L1899.895,1810.81443 L1809.45071,1901.25872 L1553.59701,1645.40502 L1644.04129,1554.96073 Z M1918.64907,1280.36575 L1918.64907,1408.2926 L1534.86852,1408.2926 L1534.86852,1280.36575 L1918.64907,1280.36575 Z M1309.87078,53.0739244 C1380.35847,-17.541697 1496.00434,-17.6696239 1568.02716,52.562217 L1568.02716,52.562217 L1866.73636,351.271412 C1937.35198,423.67801 1937.09612,539.451809 1866.73636,609.811577 L1866.73636,609.811577 L1459.67312,1016.74689 C1425.51665,1051.15921 1379.71884,1069.96446 1330.97871,1069.96446 C1282.23858,1069.96446 1236.56869,1051.15921 1202.2843,1016.74689 L1202.2843,1016.74689 L1292.72858,926.302605 C1313.06895,946.515047 1349.01639,946.515047 1369.22884,926.302605 L1369.22884,926.302605 L1776.29207,519.367294 C1797.4,498.259363 1797.14415,463.207407 1775.78037,441.076061 L1775.78037,441.076061 L1477.96666,143.518208 C1456.47495,122.538204 1421.42299,122.538204 1400.31506,143.518208 L1400.31506,143.518208 L993.379749,550.453518 C983.273528,560.55974 977.644746,574.119986 977.644746,588.57572 C977.644746,603.287308 983.273528,616.847554 993.379749,626.953775 L993.379749,626.953775 L902.935466,717.398058 C831.936064,646.526583 831.936064,530.88071 902.935466,460.009235 L902.935466,460.009235 Z M372.525159,512.804646 L372.525159,640.731497 L10.748026,640.731497 L10.748026,512.804646 L372.525159,512.804646 Z M639.380569,12.0989542 L639.380569,373.876087 L511.453718,373.876087 L511.453718,12.0989542 L639.380569,12.0989542 Z M108.919091,19.8385286 L364.772792,275.692229 L274.328508,366.136512 L18.4748078,110.282812 L108.919091,19.8385286 Z" stroke="none" stroke-width="1" fill-rule="evenodd"/>
</svg>

<svg viewBox="0 0 1920 1920" version="1.1" xmlns="http://www.w3.org/2000/svg">
    <path d="M928.15 1290.856l89.293-91.468c34.924 34.029 54.369 79.57 54.627 128.31.253 49.253-18.808 95.69-53.988 130.87L611.02 1865.503c-34.284 34.412-79.954 53.218-128.694 53.218-48.74 0-94.538-18.806-128.823-53.218L54.154 1566.154c-70.872-70.871-70.872-186.517 0-257.388l407.063-407.064c35.052-35.18 78.035-59.87 130.741-54.113 48.74.256 94.282 19.7 128.439 54.625l-91.596 89.42c-9.978-10.49-19.7-16.118-37.866-16.118-14.584 0-28.528 5.885-39.146 16.63L144.598 1399.21c-20.98 21.108-20.98 55.392.128 76.5l299.349 299.349c20.34 20.212 56.16 20.212 76.5 0l407.063-406.935c10.746-10.746 16.63-24.946 16.503-39.658 0-14.2-5.757-27.504-15.991-37.61zm938.586-939.585c70.616 72.407 70.36 188.18 0 258.54l-407.063 406.936c-34.156 34.412-79.954 53.217-128.694 53.217-48.74 0-94.41-18.805-128.695-53.217l90.445-90.444c20.34 20.212 56.287 20.212 76.5 0l407.063-406.936c21.108-21.108 20.852-56.16-.512-78.29l-297.813-297.559c-21.492-20.98-56.544-20.98-77.652 0L993.38 550.454c-10.106 10.106-15.735 23.666-15.735 38.122 0 14.711 5.629 28.272 15.735 38.378l-90.445 90.444c-70.999-70.871-70.999-186.517 0-257.389l406.936-406.935c70.487-70.616 186.133-70.744 258.156-.512l298.71 298.71zM364.773 275.692l-90.444 90.445L18.475 110.283l90.444-90.444 255.854 255.853zM10.748 640.732V512.804h361.777V640.73H10.748zm500.706-266.856V12.1H639.38v361.777H511.454zm1042.143 1271.529l90.444-90.444 255.854 255.853-90.444 90.445-255.854-255.854zm-18.728-237.112v-127.927h383.78v127.927h-383.78zM1279.015 1920v-383.78h127.927V1920h-127.927z" stroke="none" stroke-width="1" fill-rule="evenodd"/>
</svg>
